X:1
T:Mach’s Mit Mir, Gott, 87.87.88
T:Mach’s Mit Mir, Gott, 87.87.88
T:Johann Hermann Schein, 1628
T:Public Domain Courtesy of the Cyber Hymnal™
C:Johann Hermann Schein, 1628
Z:Public Domain
Z:Courtesy of the Cyber Hymnal™
%%score ( 1 2 ) ( 3 4 )
L:1/8
M:6/4
K:Eb
V:1 treble 
V:2 treble 
V:3 bass 
V:4 bass 
V:1
 [B,E]4 | [EG]4 [EG]2 [DB]4 [EB]2 [EA]2 [EG]2 | [DF]6 [FB]2 | [Fc]2 [Fd]2 [Ge]2 [Fd]2 [Fc]4 | %4
 [DB]8 [GB]4 | [Ge]4 [EG]2 [FB]4 [EB]2 | [EA]2 [EG]2 [DF]6 [FB]2 | [Fc]2 [Fd]2 [Ee]2 [Fd]2 [Fc]4 | %8
 [DB]8 [EB]4 | [Ee]4 [Ed]2 [Ec]4 [EB]2 | [EA]2 [EG]2 [DF]4 [EB]4 | [EA]4 [EG]2 [DF]4 [FA]2 | %12
 [EG]4 F4 [B,E]4 |] %13
V:2
 x4 | x16 | x8 | x12 | x12 | x12 | x12 | x12 | x12 | x12 | x12 | x12 | x4 (E2 D2) x4 |] %13
V:3
 [E,G,]4 | [E,B,]4 [C,C]2 [B,,F,]4 [E,G,]2 [A,C]2 [E,B,]2 | [B,,B,]6 [B,D]2 | %3
 [=A,C]2 B,2 [E,B,]2 [B,,B,]2 (B,2 A,2) | [B,,B,]8 [E,B,]4 | [C,B,]4 [C,C]2 [B,,D]4 [G,,B,]2 | %6
 [A,,C]2 [E,B,]2 [B,,B,]6 [B,,D]2 | [=A,,C]2 [B,,B,]2 [C,G,]2 [D,B,]2 (B,2 =A,2) | %8
 [B,,B,]8 [E,G,]4 | [C,G,]4 [B,,G,]2 [A,,A,]4 [G,,B,]2 | [A,,C]2 [E,B,]2 [B,,B,]4 [G,,B,]4 | %11
 [A,,C]4 [E,B,]2 [B,,B,]4 [F,,C]2 | B,4 [B,,B,]4 [E,,G,]4 |] %13
V:4
 x4 | x16 | x8 | x2 B,2 x2 F,4 x2 | x12 | x12 | x12 | x8 F,4 | x12 | x12 | x12 | x12 | %12
 (G,,2 A,,2) x8 |] %13

